local/share/icons/dracula-icons-main/16/devices/network-wired-activated.svg

<svg xmlns="http://www.w3.org/2000/svg" width="16" height="16" version="1.1" viewBox="0 0 16 16">
 <defs>
  <style id="current-color-scheme" type="text/css">
   .ColorScheme-Text { color:#727272; } .ColorScheme-Highlight { color:#5294e2; }
  </style>
 </defs>
 <path style="fill:currentColor;" class="ColorScheme-Text" d="m2 2s-1 0-1 1v9c0 1 1 1 1 1h2l1 1h6l1-1h2s1 0.13 1-1v-9c0-1-1-1-1-1zm1 2h10v7h-2l-1 1h-4l-1-1h-2z"/>
 <rect style="fill:currentColor;" class="ColorScheme-Text" x="5" y="6" width="2" height="3" rx="0" ry="0"/>
 <rect style="fill:currentColor;" class="ColorScheme-Text" x="9" y="6" width="2" height="3" rx="0" ry="0"/>
</svg>

<?xml version="1.0" encoding="UTF-8"?>
<svg xmlns="http://www.w3.org/2000/svg" xmlns:xlink="http://www.w3.org/1999/xlink" width="16" height="16" viewBox="0 0 16 16">
<path fill-rule="nonzero" fill="rgb(44.705882%, 44.705882%, 44.705882%)" fill-opacity="1" d="M 2 2 C 2 2 1 2 1 3 L 1 12 C 1 13 2 13 2 13 L 4 13 L 5 14 L 11 14 L 12 13 L 14 13 C 14 13 15 13.128906 15 12 L 15 3 C 15 2 14 2 14 2 Z M 3 4 L 13 4 L 13 11 L 11 11 L 10 12 L 6 12 L 5 11 L 3 11 Z M 3 4 "/>
<path fill-rule="nonzero" fill="rgb(44.705882%, 44.705882%, 44.705882%)" fill-opacity="1" d="M 5 6 L 7 6 L 7 9 L 5 9 Z M 5 6 "/>
<path fill-rule="nonzero" fill="rgb(44.705882%, 44.705882%, 44.705882%)" fill-opacity="1" d="M 9 6 L 11 6 L 11 9 L 9 9 Z M 9 6 "/>
</svg>
